app/assets/images/heroicons/micro/arrow-turn-up-right.svg

<svg width="16" height="16" viewBox="0 0 16 16" fill="none" xmlns="http://www.w3.org/2000/svg">
<path fill-rule="evenodd" clip-rule="evenodd" d="M2.75 14C3.16421 14 3.5 13.6642 3.5 13.25V6.75H11.4393L10.4697 7.71967C10.1768 8.01256 10.1768 8.48744 10.4697 8.78033C10.7626 9.07322 11.2374 9.07322 11.5303 8.78033L13.7803 6.53033C14.0732 6.23744 14.0732 5.76256 13.7803 5.46967L11.5303 3.21967C11.2374 2.92678 10.7626 2.92678 10.4697 3.21967C10.1768 3.51256 10.1768 3.98744 10.4697 4.28033L11.4393 5.25H2.75C2.33579 5.25 2 5.58579 2 6V13.25C2 13.6642 2.33579 14 2.75 14Z" fill="black"/>
</svg>

<svg xmlns="http://www.w3.org/2000/svg" viewBox="0 0 16 16" fill="currentColor" aria-hidden="true" data-slot="icon">
  <path fill-rule="evenodd" d="M2.75 14a.75.75 0 0 0 .75-.75v-6.5h7.94l-.97.97a.75.75 0 0 0 1.06 1.06l2.25-2.25a.75.75 0 0 0 0-1.06l-2.25-2.25a.75.75 0 1 0-1.06 1.06l.97.97H2.75A.75.75 0 0 0 2 6v7.25c0 .414.336.75.75.75Z" clip-rule="evenodd"/>
</svg>
